apps/www/public/images/ga/ga-logo.svg

<svg width="167" height="88" viewBox="0 0 167 88" fill="none" xmlns="http://www.w3.org/2000/svg">
<path d="M41.2736 87.284C20.2696 87.284 0.681641 71.944 0.681641 43.624C0.681641 15.304 21.4496 0.0820312 42.0996 0.0820312C60.2716 0.0820312 74.3136 10.23 79.1516 25.334L68.6496 29.818C64.8736 17.782 55.0796 10.702 42.0996 10.702C27.1136 10.702 12.4816 21.44 12.4816 43.624C12.4816 65.808 26.6416 76.782 41.6276 76.782C41.6276 77.8892 41.625 85.2642 41.625 87.2841C41.5087 87.284 41.3916 87.284 41.2736 87.284Z" fill="white"/>
<path d="M154.157 85.5136L126.427 13.8876L99.1693 85.5136H86.7793L120.055 1.85156H133.389L166.665 85.5136H154.157Z" fill="white"/>
<path fill-rule="evenodd" clip-rule="evenodd" d="M38.4688 54.9199L68.125 54.9199L68.125 84.5762H78.4375L78.4375 54.9199V44.6074L68.125 44.6074H38.4688V54.9199Z" fill="white"/>
<rect x="132.875" y="85.5137" width="12.3027" height="10.3125" transform="rotate(-180 132.875 85.5137)" fill="white"/>
</svg>

<svg xmlns="http://www.w3.org/2000/svg" width="167" height="88" fill="none" viewBox="0 0 167 88"><path fill="#fff" d="M41.274 87.284C20.27 87.284.682 71.944.682 43.624S21.45.082 42.1.082c18.172 0 32.214 10.148 37.052 25.252L68.65 29.818C64.874 17.782 55.08 10.702 42.1 10.702c-14.986 0-29.618 10.738-29.618 32.922s14.16 33.158 29.146 33.158l-.003 10.502zM154.157 85.514l-27.73-71.626-27.258 71.626H86.78l33.276-83.662h13.334l33.276 83.662z"/><path fill="#fff" fill-rule="evenodd" d="M38.469 54.92h29.656v29.656h10.313V44.607H38.469z" clip-rule="evenodd"/><path fill="#fff" d="M132.875 85.513h-12.303V75.2h12.303z"/></svg>
